;FLAVOR:Marlin
;TIME:10056
;Filament used: 6.62814m
;Layer height: 0.2
;MINX:60.009
;MINY:60.009
;MINZ:0.2
;MAXX:174.991
;MAXY:174.991
;MAXZ:8
;TARGET_MACHINE.NAME:Creality Ender-3
;Generated with Cura_SteamEngine 5.10.1
M140 S50
M105
M190 S50
M104 S200
M105
M109 S200
; Ender 3 Custom Start G-code
G92 E0 ; Reset Extruder
G28 ; Home all axes
G1 Z2.0 F3000 ; Move Z Axis up little to prevent scratching of Heat Bed
G1 X0.1 Y20 Z0.3 F5000.0 ; Move to start position
G1 X0.1 Y200.0 Z0.3 F1500.0 E15 ; Draw the first line
G1 X0.4 Y200.0 Z0.3 F5000.0 ; Move to side a little
G1 X0.4 Y20 Z0.3 F1500.0 E30 ; Draw the second line
G92 E0 ; Reset Extruder
G1 Z2.0 F3000 ; Move Z Axis up little to prevent scratching of Heat Bed
G1 X5 Y20 Z0.3 F5000.0 ; Move over to prevent blob squish
M82 ;absolute extrusion mode
G92 E0
G92 E0
G1 F2700 E-5
;LAYER_COUNT:40
;LAYER:0
M107
G0 F6000 X77.118 Y76.579 Z0.2
;TYPE:SKIRT
G1 F2700 E0
G1 F1200 X78.152 Y75.59 E0.04759
G1 X79.169 Y74.652 E0.09361
G1 X80.292 Y73.676 E0.14309
G1 X81.103 Y72.996 E0.17829
G1 X81.648 Y72.558 E0.20155
G1 X82.603 Y71.816 E0.24177
G1 X83.506 Y71.136 E0.27937
G1 X84.736 Y70.264 E0.32952
G1 X85.872 Y69.489 E0.37526
G1 X87.24 Y68.621 E0.42914
G1 X88.243 Y68.008 E0.46824
G1 X89.702 Y67.18 E0.52404
G1 X90.449 Y66.77 E0.55238
G1 X91.142 Y66.409 E0.57837
G1 X92.185 Y65.887 E0.61716
G1 X93.226 Y65.384 E0.65561
G1 X94.614 Y64.765 E0.70616
G1 X95.848 Y64.241 E0.75075
G1 X97.255 Y63.696 E0.80094
G1 X98.452 Y63.254 E0.84338
G1 X99.857 Y62.786 E0.89263
G1 X101.142 Y62.383 E0.93742
G1 X102.74 Y61.94 E0.99258
G1 X103.888 Y61.643 E1.03202
G1 X105.37 Y61.306 E1.08257
G1 X106.599 Y61.051 E1.12431
G1 X108.303 Y60.752 E1.18185
G1 X109.38 Y60.584 E1.21811
G1 X110.888 Y60.393 E1.26867
G1 X112.251 Y60.248 E1.31425
G1 X113.901 Y60.125 E1.36929
G1 X115.004 Y60.062 E1.40603
G1 X116.517 Y60.021 E1.45637
G1 X117.874 Y60.009 E1.50151
G1 X119.344 Y60.041 E1.55041
G1 X120.417 Y60.083 E1.58613
G1 X122.188 Y60.204 E1.64517
G1 X123.472 Y60.319 E1.68805
G1 X124.997 Y60.503 E1.73914
G1 X126.276 Y60.682 E1.78209
G1 X127.929 Y60.965 E1.83787
G1 X129.059 Y61.182 E1.87614
G1 X130.534 Y61.509 E1.92639
G1 X131.614 Y61.768 E1.96333
G1 X133.408 Y62.256 E2.02517
G1 X134.527 Y62.587 E2.06398
G1 X136.045 Y63.085 E2.11711
G1 X136.991 Y63.413 E2.15042
G1 X137.574 Y63.629 E2.17109
G1 X138.781 Y64.096 E2.21414
G1 X139.6 Y64.427 E2.24352
G1 X141.33 Y65.184 E2.30633
G1 X142.152 Y65.562 E2.33642
G1 X143.883 Y66.422 E2.40071
G1 X144.711 Y66.854 E2.43177
G1 X146.337 Y67.768 E2.49381
G1 X147.342 Y68.362 E2.53264
G1 X148.731 Y69.237 E2.58724
G1 X149.704 Y69.875 E2.62594
G1 X151.095 Y70.848 E2.6824
G1 X151.823 Y71.378 E2.71235
G1 X153.317 Y72.533 E2.77516
G1 X154.068 Y73.138 E2.80723
G1 X155.394 Y74.27 E2.86522
G1 X156.368 Y75.139 E2.90863
G1 X157.557 Y76.265 E2.9631
G1 X158.232 Y76.928 E2.99457
G1 X159.408 Y78.15 E3.05098
G1 X160.348 Y79.169 E3.09709
G1 X161.324 Y80.292 E3.14657
G1 X162.002 Y81.103 E3.18173
G1 X162.443 Y81.648 E3.20505
G1 X163.102 Y82.496 E3.24077
G1 X163.864 Y83.506 E3.28285
G1 X164.736 Y84.736 E3.333
G1 X165.511 Y85.872 E3.37874
G1 X166.379 Y87.24 E3.43262
G1 X166.992 Y88.243 E3.47172
G1 X167.82 Y89.702 E3.52752
G1 X168.23 Y90.449 E3.55586
G1 X168.591 Y91.142 E3.58185
G1 X169.113 Y92.185 E3.62064
G1 X169.616 Y93.226 E3.65909
G1 X170.235 Y94.614 E3.70964
G1 X170.759 Y95.848 E3.75423
G1 X171.304 Y97.255 E3.80442
G1 X171.746 Y98.452 E3.84686
G1 X172.214 Y99.857 E3.89611
G1 X172.617 Y101.142 E3.9409
G1 X173.06 Y102.74 E3.99606
G1 X173.357 Y103.888 E4.0355
G1 X173.694 Y105.37 E4.08605
G1 X173.949 Y106.599 E4.12779
G1 X174.248 Y108.303 E4.18533
G1 X174.416 Y109.38 E4.22159
G1 X174.607 Y110.888 E4.27215
G1 X174.752 Y112.251 E4.31774
G1 X174.875 Y113.901 E4.37277
G1 X174.938 Y115.004 E4.40951
G1 X174.981 Y116.595 E4.46245
G1 X174.991 Y117.66 E4.49787
G1 X174.958 Y119.383 E4.55519
G1 X174.906 Y120.656 E4.59757
G1 X174.783 Y122.343 E4.65382
G1 X174.681 Y123.472 E4.69153
G1 X174.497 Y124.997 E4.74262
G1 X174.318 Y126.276 E4.78557
G1 X174.035 Y127.929 E4.84135
G1 X173.818 Y129.059 E4.87962
G1 X173.491 Y130.534 E4.92987
G1 X173.232 Y131.614 E4.96681
G1 X172.744 Y133.408 E5.02865
G1 X172.412 Y134.529 E5.06753
G1 X171.915 Y136.045 E5.1206
G1 X171.587 Y136.991 E5.1539
G1 X171.371 Y137.574 E5.17458
G1 X170.904 Y138.781 E5.21762
G1 X170.573 Y139.6 E5.247
G1 X169.816 Y141.33 E5.30981
G1 X169.438 Y142.152 E5.3399
G1 X168.578 Y143.883 E5.40419
G1 X168.146 Y144.711 E5.43525
G1 X167.232 Y146.337 E5.49729
G1 X166.638 Y147.342 E5.53612
G1 X165.763 Y148.731 E5.59072
G1 X165.125 Y149.704 E5.62942
G1 X164.152 Y151.095 E5.68588
G1 X163.622 Y151.823 E5.71583
G1 X162.467 Y153.317 E5.77864
G1 X161.862 Y154.068 E5.81071
G1 X160.73 Y155.394 E5.8687
G1 X159.861 Y156.368 E5.91212
G1 X158.735 Y157.557 E5.96658
G1 X158.072 Y158.232 E5.99805
G1 X156.85 Y159.408 E6.05446
G1 X155.831 Y160.348 E6.10057
G1 X154.708 Y161.324 E6.15005
G1 X153.897 Y162.004 E6.18526
G1 X153.352 Y162.442 E6.20851
G1 X152.397 Y163.184 E6.24873
G1 X151.494 Y163.864 E6.28633
G1 X150.264 Y164.736 E6.33648
G1 X149.128 Y165.511 E6.38222
G1 X147.76 Y166.379 E6.4361
G1 X146.757 Y166.992 E6.4752
G1 X145.298 Y167.82 E6.531
G1 X144.551 Y168.23 E6.55934
G1 X143.858 Y168.591 E6.58533
G1 X142.815 Y169.113 E6.62412
G1 X141.774 Y169.616 E6.66257
G1 X140.386 Y170.235 E6.71312
G1 X139.152 Y170.759 E6.75771
G1 X137.745 Y171.304 E6.8079
G1 X136.548 Y171.746 E6.85034
G1 X135.143 Y172.214 E6.89959
G1 X133.858 Y172.617 E6.94438
G1 X132.26 Y173.06 E6.99954
G1 X131.112 Y173.357 E7.03898
G1 X129.63 Y173.694 E7.08953
G1 X128.401 Y173.949 E7.13128
G1 X126.697 Y174.248 E7.18882
G1 X125.62 Y174.416 E7.22507
G1 X124.112 Y174.607 E7.27563
G1 X122.749 Y174.752 E7.32122
G1 X121.099 Y174.875 E7.37625
G1 X119.996 Y174.938 E7.41299
G1 X118.408 Y174.98 E7.46583
G1 X117.337 Y174.991 E7.50145
G1 X115.618 Y174.958 E7.55864
G1 X114.595 Y174.917 E7.59269
G1 X113.893 Y174.877 E7.61608
G1 X112.874 Y174.801 E7.65006
G1 X111.583 Y174.686 E7.69317
G1 X109.874 Y174.48 E7.75042
G1 X108.725 Y174.318 E7.78902
G1 X107.071 Y174.035 E7.84483
G1 X105.941 Y173.819 E7.88309
G1 X104.455 Y173.489 E7.93372
G1 X103.397 Y173.234 E7.96992
G1 X101.775 Y172.796 E8.0258
G1 X100.46 Y172.409 E8.07139
G1 X98.955 Y171.915 E8.12408
G1 X98.003 Y171.585 E8.15759
G1 X96.135 Y170.873 E8.22408
G1 X95.478 Y170.607 E8.24765
G1 X93.698 Y169.828 E8.31228
G1 X92.819 Y169.424 E8.34445
G1 X91.117 Y168.578 E8.40767
G1 X90.289 Y168.146 E8.43873
G1 X88.663 Y167.232 E8.50077
G1 X87.658 Y166.638 E8.5396
G1 X86.269 Y165.763 E8.5942
G1 X85.296 Y165.125 E8.6329
G1 X83.905 Y164.152 E8.68936
G1 X83.177 Y163.622 E8.71931
G1 X81.683 Y162.467 E8.78212
G1 X80.932 Y161.862 E8.81419
G1 X79.606 Y160.73 E8.87218
G1 X78.632 Y159.861 E8.9156
G1 X77.443 Y158.735 E8.97006
G1 X76.768 Y158.072 E9.00153
G1 X75.592 Y156.85 E9.05794
G1 X74.652 Y155.831 E9.10405
G1 X73.676 Y154.708 E9.15354
G1 X72.996 Y153.897 E9.18874
G1 X72.558 Y153.352 E9.21199
G1 X71.816 Y152.397 E9.25222
G1 X71.136 Y151.494 E9.28981
G1 X70.264 Y150.264 E9.33996
G1 X69.489 Y149.128 E9.3857
G1 X68.621 Y147.76 E9.43959
G1 X68.008 Y146.757 E9.47868
G1 X67.18 Y145.298 E9.53448
G1 X66.77 Y144.551 E9.56282
G1 X66.409 Y143.858 E9.58881
G1 X65.887 Y142.815 E9.6276
G1 X65.384 Y141.774 E9.66606
G1 X64.765 Y140.386 E9.7166
G1 X64.241 Y139.152 E9.76119
G1 X63.696 Y137.745 E9.81138
G1 X63.254 Y136.548 E9.85382
G1 X62.786 Y135.143 E9.90307
G1 X62.383 Y133.858 E9.94787
G1 X61.94 Y132.26 E10.00302
G1 X61.643 Y131.112 E10.04246
G1 X61.306 Y129.63 E10.09301
G1 X61.051 Y128.401 E10.13476
G1 X60.752 Y126.697 E10.1923
G1 X60.584 Y125.62 E10.22855
G1 X60.393 Y124.112 E10.27911
G1 X60.248 Y122.749 E10.3247
G1 X60.125 Y121.099 E10.37973
G1 X60.062 Y119.996 E10.41648
G1 X60.021 Y118.483 E10.46682
G1 X60.009 Y117.126 E10.51195
G1 X60.041 Y115.656 E10.56086
G1 X60.083 Y114.589 E10.59637
G1 X60.124 Y113.892 E10.61959
G1 X60.216 Y112.661 E10.66065
G1 X60.321 Y111.511 E10.69906
G1 X60.503 Y110.003 E10.74958
G1 X60.682 Y108.724 E10.79254
G1 X60.965 Y107.071 E10.84831
G1 X61.182 Y105.941 E10.88658
G1 X61.509 Y104.466 E10.93683
G1 X61.768 Y103.386 E10.97377
G1 X62.256 Y101.592 E11.03561
G1 X62.587 Y100.473 E11.07442
G1 X63.085 Y98.955 E11.12756
G1 X63.415 Y98.003 E11.16107
G1 X64.127 Y96.135 E11.22756
G1 X64.393 Y95.478 E11.25114
G1 X65.172 Y93.698 E11.31576
G1 X65.576 Y92.819 E11.34794
G1 X66.422 Y91.117 E11.41115
G1 X66.854 Y90.289 E11.44222
G1 X67.768 Y88.663 E11.50425
G1 X68.362 Y87.658 E11.54308
G1 X69.237 Y86.269 E11.59768
G1 X69.875 Y85.296 E11.63638
G1 X70.848 Y83.905 E11.69284
G1 X71.378 Y83.177 E11.72279
G1 X72.533 Y81.683 E11.7856
G1 X73.138 Y80.932 E11.81768
G1 X74.27 Y79.606 E11.87567
G1 X75.139 Y78.632 E11.91908
G1 X76.267 Y77.441 E11.97364
G1 X77.118 Y76.579 E12.01393
G0 F6000 X77.394 Y76.868
G1 F1200 X78.423 Y75.884 E12.06128
G1 X79.431 Y74.954 E12.1069
G1 X80.549 Y73.983 E12.15615
G1 X81.354 Y73.308 E12.19109
G1 X81.893 Y72.874 E12.21411
G1 X82.844 Y72.135 E12.25416
G1 X83.737 Y71.462 E12.29136
G1 X84.961 Y70.594 E12.34126
G1 X86.086 Y69.827 E12.38655
G1 X87.449 Y68.962 E12.44024
G1 X88.441 Y68.356 E12.47891
G1 X89.894 Y67.531 E12.53448
G1 X90.634 Y67.125 E12.56255
G1 X91.321 Y66.767 E12.58832
G1 X92.359 Y66.247 E12.62693
G1 X93.389 Y65.749 E12.66499
G1 X94.77 Y65.133 E12.71528
G1 X95.993 Y64.614 E12.75947
G1 X97.393 Y64.071 E12.80941
G1 X98.578 Y63.634 E12.85142
G1 X99.977 Y63.168 E12.90046
G1 X101.262 Y62.765 E12.94526
G1 X102.84 Y62.327 E12.99973
G1 X103.977 Y62.033 E13.03879
G1 X105.451 Y61.698 E13.08906
G1 X106.668 Y61.445 E13.1304
G1 X108.365 Y61.147 E13.18771
G1 X109.43 Y60.981 E13.22356
G1 X110.93 Y60.791 E13.27385
G1 X112.281 Y60.647 E13.31904
G1 X113.924 Y60.524 E13.37384
G1 X115.015 Y60.462 E13.41018
G1 X116.521 Y60.421 E13.46029
G1 X117.865 Y60.409 E13.50499
G1 X119.329 Y60.441 E13.5537
G1 X120.39 Y60.482 E13.58901
G1 X122.152 Y60.602 E13.64775
G1 X123.424 Y60.716 E13.69023
G1 X124.942 Y60.899 E13.74109
G1 X126.208 Y61.076 E13.7836
G1 X127.854 Y61.358 E13.83915
G1 X128.972 Y61.572 E13.87701
G1 X130.441 Y61.898 E13.92705
G1 X131.509 Y62.154 E13.96358
G1 X133.295 Y62.64 E14.02514
G1 X134.402 Y62.967 E14.06354
G1 X135.914 Y63.463 E14.11646
G1 X136.852 Y63.788 E14.14948
G1 X137.43 Y64.002 E14.16998
G1 X138.631 Y64.467 E14.21281
G1 X139.44 Y64.793 E14.24182
G1 X141.163 Y65.547 E14.30438
G1 X141.974 Y65.92 E14.33407
G1 X143.698 Y66.777 E14.3981
G1 X144.515 Y67.203 E14.42875
G1 X146.134 Y68.113 E14.49052
G1 X147.129 Y68.7 E14.52894
G1 X148.512 Y69.572 E14.58332
G1 X149.475 Y70.203 E14.62162
G1 X150.86 Y71.172 E14.67784
G1 X151.578 Y71.694 E14.70736
G1 X153.066 Y72.844 E14.76991
G1 X153.808 Y73.442 E14.80161
G1 X155.128 Y74.568 E14.85931
G1 X156.093 Y75.429 E14.90233
G1 X157.277 Y76.551 E14.95658
G1 X157.944 Y77.205 E14.98765
G1 X159.114 Y78.421 E15.04377
G1 X160.046 Y79.431 E15.08948
G1 X161.017 Y80.549 E15.13874
G1 X161.691 Y81.354 E15.17366
G1 X162.127 Y81.894 E15.19674
G1 X162.783 Y82.737 E15.23227
G1 X163.538 Y83.737 E15.27394
G1 X164.406 Y84.961 E15.32385
G1 X165.173 Y86.086 E15.36914
G1 X166.038 Y87.449 E15.42283
G1 X166.644 Y88.441 E15.46149
G1 X167.469 Y89.894 E15.51707
G1 X167.875 Y90.634 E15.54514
G1 X168.233 Y91.321 E15.57091
G1 X168.753 Y92.359 E15.60952
G1 X169.251 Y93.389 E15.64757
G1 X169.867 Y94.77 E15.69787
G1 X170.386 Y95.993 E15.74205
G1 X170.929 Y97.393 E15.792
G1 X171.366 Y98.578 E15.83401
G1 X171.832 Y99.977 E15.88305
G1 X172.235 Y101.262 E15.92784
G1 X172.673 Y102.84 E15.98231
G1 X172.967 Y103.977 E16.02137
G1 X173.302 Y105.451 E16.07165
G1 X173.555 Y106.668 E16.11299
G1 X173.853 Y108.365 E16.1703
G1 X174.019 Y109.43 E16.20615
G1 X174.209 Y110.93 E16.25644
G1 X174.353 Y112.281 E16.30162
G1 X174.476 Y113.924 E16.35642
G1 X174.538 Y115.015 E16.39277
G1 X174.581 Y116.599 E16.44547
G1 X174.591 Y117.652 E16.4805
G1 X174.558 Y119.367 E16.53755
G1 X174.507 Y120.627 E16.57949
G1 X174.385 Y122.307 E16.63552
G1 X174.284 Y123.424 E16.67282
G1 X174.101 Y124.942 E16.72367
G1 X173.924 Y126.208 E16.76619
G1 X173.642 Y127.854 E16.82173
G1 X173.428 Y128.972 E16.85959
G1 X173.102 Y130.441 E16.90964
G1 X172.846 Y131.509 E16.94617
G1 X172.36 Y133.295 E17.00773
G1 X172.032 Y134.404 E17.0462
G1 X171.537 Y135.914 E17.09905
G1 X171.212 Y136.852 E17.13207
G1 X170.998 Y137.43 E17.15257
G1 X170.533 Y138.631 E17.1954
G1 X170.207 Y139.44 E17.22441
G1 X169.453 Y141.163 E17.28697
G1 X169.08 Y141.974 E17.31666
G1 X168.223 Y143.698 E17.38069
G1 X167.797 Y144.515 E17.41134
G1 X166.887 Y146.134 E17.47311
G1 X166.3 Y147.129 E17.51153
G1 X165.428 Y148.512 E17.56591
G1 X164.797 Y149.475 E17.6042
G1 X163.828 Y150.86 E17.66042
G1 X163.306 Y151.578 E17.68995
G1 X162.156 Y153.066 E17.7525
G1 X161.558 Y153.808 E17.78419
G1 X160.432 Y155.128 E17.8419
G1 X159.571 Y156.093 E17.88491
G1 X158.449 Y157.277 E17.93917
G1 X157.795 Y157.944 E17.97024
G1 X156.579 Y159.114 E18.02636
G1 X155.569 Y160.046 E18.07207
G1 X154.451 Y161.017 E18.12132
G1 X153.646 Y161.692 E18.15626
G1 X153.107 Y162.126 E18.17928
G1 X152.156 Y162.865 E18.21934
G1 X151.263 Y163.538 E18.25653
G1 X150.039 Y164.406 E18.30644
G1 X148.914 Y165.173 E18.35172
G1 X147.551 Y166.038 E18.40542
G1 X146.559 Y166.644 E18.44408
G1 X145.106 Y167.469 E18.49965
G1 X144.366 Y167.875 E18.52773
G1 X143.679 Y168.233 E18.55349
G1 X142.641 Y168.753 E18.59211
G1 X141.611 Y169.251 E18.63016
G1 X140.23 Y169.867 E18.68045
G1 X139.007 Y170.386 E18.72464
G1 X137.607 Y170.929 E18.77459
G1 X136.422 Y171.366 E18.81659
G1 X135.023 Y171.832 E18.86564
G1 X133.738 Y172.235 E18.91043
G1 X132.16 Y172.673 E18.9649
G1 X131.023 Y172.967 E19.00396
G1 X129.549 Y173.302 E19.05424
G1 X128.332 Y173.555 E19.09558
G1 X126.635 Y173.853 E19.15288
G1 X125.57 Y174.019 E19.18873
G1 X124.07 Y174.209 E19.23902
G1 X122.719 Y174.353 E19.28421
G1 X121.076 Y174.476 E19.33901
G1 X119.985 Y174.538 E19.37536
G1 X118.401 Y174.581 E19.42806
G1 X117.345 Y174.591 E19.46318
G1 X115.634 Y174.558 E19.5201
G1 X114.618 Y174.518 E19.55392
G1 X113.923 Y174.478 E19.57708
G1 X112.91 Y174.403 E19.61086
G1 X111.631 Y174.289 E19.65357
G1 X109.93 Y174.084 E19.71055
G1 X108.793 Y173.924 E19.74874
G1 X107.146 Y173.642 E19.80432
G1 X106.028 Y173.428 E19.84218
G1 X104.549 Y173.1 E19.89257
G1 X103.501 Y172.848 E19.92842
G1 X101.888 Y172.412 E19.98399
G1 X100.585 Y172.029 E20.02916
G1 X99.086 Y171.537 E20.08164
G1 X98.145 Y171.211 E20.11476
G1 X96.285 Y170.502 E20.18096
G1 X95.638 Y170.24 E20.20418
G1 X93.865 Y169.465 E20.26854
G1 X92.997 Y169.066 E20.30031
G1 X91.302 Y168.223 E20.36328
G1 X90.485 Y167.797 E20.39392
G1 X88.866 Y166.887 E20.45569
G1 X87.871 Y166.3 E20.49412
G1 X86.488 Y165.428 E20.5485
G1 X85.525 Y164.797 E20.58679
G1 X84.14 Y163.828 E20.64301
G1 X83.422 Y163.306 E20.67253
G1 X81.934 Y162.156 E20.73508
G1 X81.192 Y161.558 E20.76678
G1 X79.872 Y160.432 E20.82449
G1 X78.907 Y159.571 E20.8675
G1 X77.723 Y158.449 E20.92175
G1 X77.056 Y157.795 E20.95282
G1 X75.886 Y156.579 E21.00895
G1 X74.954 Y155.569 E21.05466
G1 X73.983 Y154.451 E21.10391
G1 X73.308 Y153.646 E21.13885
G1 X72.874 Y153.107 E21.16187
G1 X72.135 Y152.156 E21.20192
G1 X71.462 Y151.263 E21.23912
G1 X70.594 Y150.039 E21.28902
G1 X69.827 Y148.914 E21.33431
G1 X68.962 Y147.551 E21.388
G1 X68.356 Y146.559 E21.42667
G1 X67.531 Y145.106 E21.48224
G1 X67.125 Y144.366 E21.51031
G1 X66.767 Y143.679 E21.53608
G1 X66.247 Y142.641 E21.57469
G1 X65.749 Y141.611 E21.61275
G1 X65.133 Y140.23 E21.66304
G1 X64.614 Y139.007 E21.70723
G1 X64.071 Y137.607 E21.75717
G1 X63.634 Y136.422 E21.79918
G1 X63.168 Y135.023 E21.84822
G1 X62.765 Y133.738 E21.89302
G1 X62.327 Y132.16 E21.94748
G1 X62.033 Y131.023 E21.98655
G1 X61.698 Y129.549 E22.03682
G1 X61.445 Y128.332 E22.07816
G1 X61.147 Y126.635 E22.13547
G1 X60.981 Y125.57 E22.17132
G1 X60.791 Y124.07 E22.22161
G1 X60.647 Y122.719 E22.2668
G1 X60.524 Y121.076 E22.3216
G1 X60.462 Y119.985 E22.35794
G1 X60.421 Y118.479 E22.40805
G1 X60.409 Y117.135 E22.45275
G1 X60.441 Y115.671 E22.50146
G1 X60.482 Y114.613 E22.53667
G1 X60.523 Y113.922 E22.5597
G1 X60.614 Y112.697 E22.60055
G1 X60.718 Y111.559 E22.63856
G1 X60.899 Y110.058 E22.68885
